fa/water.svg

<svg xmlns="http://www.w3.org/2000/svg" viewBox="0 0 576 512" height="1em" width="1em">
  <path d="M549.8 237.5c-31.23-5.719-46.84-20.06-47.13-20.31-12.27-12.19-32.37-12.09-44.97-.39-1 .938-25.14 23-73.73 23s-72.73-22.06-73.38-22.62c-12.19-12.28-32.29-12.08-44.89-.38-1 .938-25.14 23-73.73 23s-72.67-22-73.37-22.6c-12.2-12.3-32.25-12.2-44.86-.3-.65.5-16.26 14.9-47.5 20.6C8.86 240.688-2.65 257.34.52 274.72c3.188 17.38 19.78 29.09 37.25 25.72 25.33-4.64 44.72-13.34 58.19-21.24 19.5 11.53 51.47 24.68 96.04 24.68 44.55 0 76.49-13.12 96-24.65 19.52 11.53 51.45 24.59 96 24.59 44.58 0 76.55-13.09 96.05-24.62 13.47 7.938 32.86 16.62 58.19 21.25 17.56 3.375 34.06-8.344 37.25-25.72 3.21-17.33-8.29-34.03-25.69-37.23zm0 144.2c-31.23-5.719-46.84-20.06-47.13-20.31-12.22-12.19-32.31-12.12-44.91-.375C456.7 361.9 432.6 384 384 384s-72.73-22.06-73.38-22.62c-12.22-12.25-32.3-12.12-44.89-.375C264.7 361.9 240.6 384 192 384s-72.73-22.06-73.38-22.62c-12.22-12.25-32.28-12.16-44.89-.344-.656.594-16.27 14.94-47.5 20.66-17.38 3.188-28.89 19.84-25.72 37.22C3.713 436.3 20.31 448 37.78 444.6c25.32-4.6 44.71-13.3 58.18-21.2 19.5 11.53 51.51 24.62 96.08 24.62 44.55 0 76.45-13.06 95.96-24.59C307.5 434.9 339.5 448 384.1 448c44.58 0 76.5-13.09 95.1-24.62 13.47 7.938 32.86 16.62 58.19 21.25 18.41 3.37 34.91-8.33 38.11-25.73 3.2-17.4-8.3-34-25.7-37.2zM37.78 156.4c25.33-4.625 44.72-13.31 58.19-21.25 19.5 11.53 51.47 24.68 96.04 24.68 44.55 0 76.49-13.12 96-24.65 19.52 11.53 51.45 24.59 96 24.59 44.58 0 76.55-13.09 96.05-24.62 13.47 7.938 32.86 16.62 58.19 21.25 17.56 3.375 34.06-8.344 37.25-25.72 3.172-17.38-8.344-34.03-25.72-37.22-31.23-5.719-46.84-20.06-47.13-20.31-12.22-12.19-32.31-12.12-44.91-.375-1 .938-25.14 23-73.73 23s-72.73-22.06-73.38-22.62c-12.22-12.25-32.3-12.12-44.89-.375-1 .938-25.14 23-73.73 23S119.3 73.76 118.6 73.2c-12.2-12.25-32.25-12.16-44.86-.35-.65.6-16.26 14.94-47.5 20.66C8.86 96.698-2.65 113.35.52 130.73c3.193 17.37 19.79 29.07 37.26 25.67z"/>
</svg>

<svg xmlns="http://www.w3.org/2000/svg" viewBox="0 0 576 512" height="1em" width="1em">
  <path d="M549.8 237.5c-31.23-5.719-46.84-20.06-47.13-20.31C490.4 205 470.3 205.1 457.7 216.8c-1 .9375-25.14 23-73.73 23s-72.73-22.06-73.38-22.62C298.4 204.9 278.3 205.1 265.7 216.8c-1 .9375-25.14 23-73.73 23S119.3 217.8 118.6 217.2C106.4 204.9 86.35 205 73.74 216.9C73.09 217.4 57.48 231.8 26.24 237.5c-17.38 3.188-28.89 19.84-25.72 37.22c3.188 17.38 19.78 29.09 37.25 25.72C63.1 295.8 82.49 287.1 95.96 279.2c19.5 11.53 51.47 24.68 96.04 24.68c44.55 0 76.49-13.12 96-24.65c19.52 11.53 51.45 24.59 96 24.59c44.58 0 76.55-13.09 96.05-24.62c13.47 7.938 32.86 16.62 58.19 21.25c17.56 3.375 34.06-8.344 37.25-25.72C578.7 257.4 567.2 240.7 549.8 237.5zM549.8 381.7c-31.23-5.719-46.84-20.06-47.13-20.31c-12.22-12.19-32.31-12.12-44.91-.375C456.7 361.9 432.6 384 384 384s-72.73-22.06-73.38-22.62c-12.22-12.25-32.3-12.12-44.89-.375C264.7 361.9 240.6 384 192 384s-72.73-22.06-73.38-22.62c-12.22-12.25-32.28-12.16-44.89-.3438c-.6562 .5938-16.27 14.94-47.5 20.66c-17.38 3.188-28.89 19.84-25.72 37.22C3.713 436.3 20.31 448 37.78 444.6C63.1 440 82.49 431.3 95.96 423.4c19.5 11.53 51.51 24.62 96.08 24.62c44.55 0 76.45-13.06 95.96-24.59C307.5 434.9 339.5 448 384.1 448c44.58 0 76.5-13.09 95.1-24.62c13.47 7.938 32.86 16.62 58.19 21.25C555.8 448 572.3 436.3 575.5 418.9C578.7 401.5 567.2 384.9 549.8 381.7zM37.78 156.4c25.33-4.625 44.72-13.31 58.19-21.25c19.5 11.53 51.47 24.68 96.04 24.68c44.55 0 76.49-13.12 96-24.65c19.52 11.53 51.45 24.59 96 24.59c44.58 0 76.55-13.09 96.05-24.62c13.47 7.938 32.86 16.62 58.19 21.25c17.56 3.375 34.06-8.344 37.25-25.72c3.172-17.38-8.344-34.03-25.72-37.22c-31.23-5.719-46.84-20.06-47.13-20.31c-12.22-12.19-32.31-12.12-44.91-.375c-1 .9375-25.14 23-73.73 23s-72.73-22.06-73.38-22.62c-12.22-12.25-32.3-12.12-44.89-.375c-1 .9375-25.14 23-73.73 23S119.3 73.76 118.6 73.2C106.4 60.95 86.35 61.04 73.74 72.85C73.09 73.45 57.48 87.79 26.24 93.51c-17.38 3.188-28.89 19.84-25.72 37.22C3.713 148.1 20.31 159.8 37.78 156.4z"/>
</svg>
